X: 11065
T: Duchess Of Bedford's, The
R: strathspey
M: 4/4
K: Cdorian
F/E/|D<B B>cB2FB|c<c c>de2Fe|df gf ed cB|A>B c>d c/B/A/G/ FE|
d<B B>C2FB|A<c c>de2fe|dfgf edcB|F>B A/B/c/A/B2Bf|
d/e/f/g/ ffb2fa|b/a/g/f/ g/f/e/d/ e/d/c/B/ c>d|c/d/e/f/ g>f ed cB|AB c>d c/B/A/G/ F>E|
DB FB Fc Ac|Fd Bd Eg eg|d/f/g/a/ b>f g/f/e/d/ e/d/c/B/|F>B A/B/c/A/B2B||

